X:33
T:Dave Kennedy's Gift
C:Terence "Cuz" Teahan
B:Terry "Cuz" Teahan "Sliabh Luachra on Parade" 1980
Z:Patrick Cavanagh
M:12/8
L:1/8
R:Slide
K:A
| ABc E2F A2B c2c | BAB cec B2A FAF | 
E2F A2B cef ecA | BAB cec B3 A3 :| 
| ece faf e2c cBA | cef ecA B2A FAF | 
E2F A2B cef ecA | BAB cec B3 A3 :|| 

